!!!!SEGMENT: pl-kk--kk-i-40--006-003_lasso-orlando-di--missa-ad-placitum-sanctus.krn
!!!cenid: 16xx:1299
!!!COM: Lasso, Orlando di
!!!COM-rism: pe506
!!!CDT: ~1532-1594/06/14
!!!CNT: Franco-Flemish
!!!OTL: Missa ad Placitum – Sanctus
!!!PDT:
!!!AGN: Sacred; Mass
!!!SMS-siglum: PL-Kk
!!!SMS-shelfmark: Kk.I.40
!!!NIFC-rismID: 1001154492
!!!URL-scan: http://repozytorium.nifc.pl/skany/pl-kk-nut--i-40
!!!ONB-nifc: UWAGA: części Mszy: 1. Kyrie, 2. Et in terra, 3. Sanctus, 4. Agnus Dei. Skan 0009-0010
!!!SMS-variant:
!!!SMS-altvar:
**kern	**text
*I"Baſso Ripieno.	*
*I'B rip	*
*clefF3	*
*k[b-]	*
*M2/1	*
*met(c|)	*
=1-	=1-
!LO:TX:t=P:problem:oddech/cezura na różnej wysokości:global	!
!LO:TX:t=P:problem:znaki: B- nad BB-	!
!LO:TX:t=P:problem:kreska pseudotaktowa	!
!LO:N:vis=00	!
00r	.
=2-	=2-
.	.
=3-	=3-
*lig	*
1G	San-
1B-	.
*Xlig	*
=4-	=4-
4A\	.
4G\	.
4A\	.
!LO:TX:t=P:problem:kreska pseudotaktowa	!
4B-\	.
*2\right	*
2.c\	.
8B-\L	.
!LO:TX:t=P:problem:kreska pseudotaktowa	!
8A\J	.
=5-	=5-
4G\	.
4A\	.
4B-\	.
4c\	.
!LO:TX:t=P:problem:kreska pseudotaktowa	!
1d,	-ct(us)
=6-	=6-
2.c\	San-
8B-\L	.
!LO:TX:t=P:problem:kreska pseudotaktowa	!
8A\J	.
4G\	.
4A\	.
4B-\	.
!LO:TX:t=P:problem:kreska pseudotaktowa	!
4c\	.
=7-	=7-
2d,\	-ct(us)
4D/	San-
!LO:TX:t=P:problem:kreska pseudotaktowa	!
4E/	.
4F\	.
4G\	.
4A\	.
4B-\	.
=8-	=8-
2c\	.
!LO:TX:t=P:problem:kreska pseudotaktowa	!
2d\	.
!LO:LB:g=original	!
!LO:TX:t=P:problem:kreska pseudotaktowa	!
1A	-ct(us)
=9-	=9-
2r	.
2.B-\	Do-
4B-\	-mi-
!LO:TX:t=P:problem:kreska pseudotaktowa	!
2F\	-n(us)
=10-	=10-
(>2.A\	DE-
!LO:TX:t=P:problem:kreska pseudotaktowa	!
4B-\)	.
2c\	.
!LO:TX:t=P:problem:kreska pseudotaktowa	!
2G\	-US
=11-	=11-
0r	.
=12-	=12-
!LO:TX:t=P:problem:kreska pseudotaktowa	!
1r	.
2.B-\	Do-
4B-\	-mi-
=13-	=13-
2F\	-n(us)
1A	De-
!LO:TX:t=P:problem:kreska pseudotaktowa	!
2c\	-us
=14-	=14-
2G\	Sab-
2G\	-ba-
2D,/	-oth
2.F/	Do-
=15-	=15-
.	.
4F/	mi-
!LO:TX:t=P:problem:kreska pseudotaktowa	!
2C/	-n(us)
2.E/	De-
!LO:TX:t=P:problem:kreska pseudotaktowa	!
4F/	.
=16-	=16-
1G	.
!LO:TX:t=P:problem:kreska pseudotaktowa	!
1D	-us
=17-	=17-
2r	.
2.G\	Do-
4G\	-mi-
!LO:TX:t=P:problem:kreska pseudotaktowa	!
2D/	-n(us)
=18-	=18-
2.F\	De-
!LO:TX:t=P:problem:kreska pseudotaktowa	!
4G\	.
2A\	-us
!LO:TX:t=P:problem:kreska pseudotaktowa	!
2B-,\	.
!LO:LB:g=original	!
=19-	=19-
2A\	Sab-
2A\	-ba-
1D;>	-oth.
=20||	=20||
!LO:TX:t=P:problem:kreska pseudotaktowa	!
1G	Ple-
2c\	-ni
!LO:TX:t=P:problem:kreska pseudotaktowa	!
2G\	sunt
=21-	=21-
!LO:TX:t=P:problem:kreska pseudotaktowa	!
1d	cae-
2d\	-li
!LO:TX:t=P:problem:kreska pseudotaktowa	!
2D/	et
=22-	=22-
2.G\	ter-
4F/	.
2.E-X/	.
!LO:TX:t=P:problem:kreska pseudotaktowa	!
4D/	.
=23-	=23-
1C	.
!LO:TX:t=P:problem:kreska pseudotaktowa	!
1BB-	-ra
=24-	=24-
1.B-	glo-
!LO:TX:t=P:problem:kreska pseudotaktowa	!
2F\	-ri-
=25-	=25-
2.G\	-a
4F/	.
!LO:TX:t=P:problem:kreska pseudotaktowa	!
1E-X	.
=26-	=26-
*col	*
0D	tu-
*Xcol	*
=27-	=27-
0G;>	-a.
=28||	=28||
*M3/2	*
2G\	O-
2G\	-san-
!LO:TX:t=P:problem:kreska pseudotaktowa	!
2C/	-na
=29-	=29-
2.F\	in
4G\	ex-
!LO:TX:t=P:problem:kreska pseudotaktowa	!
2E-X/	-cel-
!LO:LB:g=original	!
=30-	=30-
1D,	-ſis
!LO:TX:t=P:problem:kreska pseudotaktowa	!
2G\	O-
=31-	=31-
1C	-san-
!LO:TX:t=P:problem:kreska pseudotaktowa	!
2C/	-na
=32-	=32-
2.F\	in
4G\	ex-
2F\	-cel-
=33-	=33-
*M2/1	*
*met(c|)	*
2B-,\	-ſis,
!LO:TX:t=P:problem:kreska pseudotaktowa	!
2B-\	O-
4F\	-san-
4G\	.
4A\	.
4B-\	.
=34-	=34-
2c\	-na
!LO:TX:t=P:problem:kreska pseudotaktowa	!
2G\	in
2B-\	ex-
4F\	-cel-
!LO:TX:t=P:problem:kreska pseudotaktowa	!
4G\	.
=35-	=35-
4A\	.
4F\	.
4G\	.
!LO:TX:t=P:problem:kreska pseudotaktowa	!
4A\	.
4B-\	.
4BB-/	.
4D/	.
!LO:TX:t=P:problem:kreska pseudotaktowa	!
4Eny/	.
=36-	=36-
2F/	.
2C/	.
0D	.
=37-	=37-
.	.
!LO:TX:t=P:problem:kreska pseudotaktowa	!
0G;>	-ſis.
=38||	=38||
*M2/1	*
*met(c|)	*
.	.
1.G	Be-
=39-	=39-
.	.
!LO:TX:t=P:problem:kreska pseudotaktowa	!
2D/	-ne-
1B-	-dic-
=40-	=40-
2A\	-tus
2.F\	qui
4G\	.
4A\	ve-
!LO:TX:t=P:problem:kreska pseudotaktowa	!
4B-\	.
=41-	=41-
2c\	.
!LO:TX:t=P:problem:kreska pseudotaktowa	!
2.C/	.
!LO:LB:g=original	!
4D/	.
4E/	.
!LO:TX:t=P:problem:kreska pseudotaktowa	!
4F/	.
=42-	=42-
4G\	.
4A\	.
4B-\	.
!LO:TX:t=P:problem:kreska pseudotaktowa	!
4c\	.
2.d\	.
!LO:TX:t=P:problem:kreska pseudotaktowa	!
4c\	.
=43-	=43-
4B-\	.
4A\	.
2B-\	.
!LO:TX:t=P:problem:kreska pseudotaktowa	!
0A	-nit
=44-	=44-
.	.
2r	.
1B-\	Be-
=45-	=45-
.	.
!LO:TX:t=P:problem:kreska pseudotaktowa	!
2B-\	-ne-
2.B-\	-dic-
!LO:TX:t=P:problem:kreska pseudotaktowa	!
4A\	.
=46-	=46-
1G	-ct(us)
2F/	.
!LO:TX:t=P:problem:kreska pseudotaktowa	!
2D/	qui
=47-	=47-
1A	ve-
!LO:TX:t=P:problem:kreska pseudotaktowa	!
1D	-nit
=48-	=48-
1r	.
2r	.
!LO:TX:t=P:problem:kreska pseudotaktowa	!
2A\	in
=49-	=49-
2c\	N(o-
!LO:TX:t=P:problem:kreska pseudotaktowa	!
2B-\	-mi)-
2A,\	-ne
*	*ij
2F\	in
=50-	=50-
2c\	N(o-
!LO:TX:t=P:problem:kreska pseudotaktowa	!
2G\	-mi)-
2A,\	-ne
*	*Xij
!LO:TX:t=P:problem:kreska pseudotaktowa	!
2F/	in
=51-	=51-
2C/	N(o-
!LO:TX:t=P:problem:kreska pseudotaktowa	!
2D/	-mi)-
2AA/	-ne
2.D/	Do-
=52-	=52-
.	.
4E/	.
4F/	.
4G/	.
2.A\	.
4A\	-mi-
=53-	=53-
!LO:TX:Bi:b:t=Osanna da Capo.	!
0D;>	-ni.
==	==
*-	*-
!!!RDF**kern: > = above
!!!RDF**kern: < = below
!!!EED: Antoni Szymański
!!!EST: 2021-07-31
!!!ENC:Berenika Jozajtis
!!!END:2021-07-04
